X:181
T:Waterloo Medal,The. CJF.181
R:Air
C:”by T.H.Bayly”
S:C.J.Fox MS, 1829/33, Beverley,E.Yorks.
N:In the title line is “by T.H.Bayly Esq.” and in the
N:stave at the end of the tune is “C J Fox”. – PJH.
B:Kidson Coll.Mitchell Lib.M1805
O:England
A:East Yorkshire
Z:vmp.P J Headford 2000 & 2008
M:C
L:1/8
Q:2/4=60
K:G
G>B|d2e>dg2Be|d2(d/c/) B/c/B3B|\
(BA) G (e/d/) dc2B|A2ABA3G3/4B/4|!
d2ed gB2e|d2dcB2BB|A2fe ed cB|(BA) GFG2zA|!
d2ddd^c2c|=c2dcB3B|B2^c ddA3|fe d ^cHd3d|!
e2dcB2dd|{f}e2dcB2Bd|d2ed cB2B|Ae dcB2B>B|!
d2ed dc2(B/A/)|” ad lib:”GB BA G3z|]

